web/themes/quartiers_solidaires/assets/icons/theme_manifestations_o.svg

<svg id="Calque_1" data-name="Calque 1" xmlns="http://www.w3.org/2000/svg" viewBox="0 0 120 120">
  <defs>
    <style>
      .cls-1{fill:currentColor}
    </style>
  </defs>
  <circle class="cls-2" cx="60" cy="60" r="51.5"/>
  <path fill="#fff" d="M60 111.5A51.5 51.5 0 1 1 111.5 60 51.56 51.56 0 0 1 60 111.5zm0-100A48.5 48.5 0 1 0 108.5 60 48.55 48.55 0 0 0 60 11.5z"/>
  <path class="cls-1" d="M67.71 79.83c-9.72 0-17.12-18.36-17.12-27.54a17.13 17.13 0 1 1 34.25 0c-.01 9.19-7.41 27.54-17.13 27.54zm0-41.67a14.14 14.14 0 0 0-14.13 14.13c0 7.87 6.68 24.54 14.13 24.54s14.12-16.67 14.12-24.54a14.14 14.14 0 0 0-14.12-14.12z"/>
  <path class="cls-1" d="M67.71 88.17a1.5 1.5 0 0 1-1.5-1.5v-8.34a1.5 1.5 0 0 1 3 0v8.33a1.5 1.5 0 0 1-1.5 1.51zM43.75 74.28c-6.88 0-11.92-12.4-11.92-18.86a11.91 11.91 0 0 1 21.74-6.73 1.5 1.5 0 1 1-2.47 1.7 8.91 8.91 0 0 0-16.27 5c0 5.55 4.58 15.86 8.92 15.86 3.23 0 6.71-5.77 8.21-11.35a1.5 1.5 0 1 1 2.9.78c-1.36 5.07-5.22 13.6-11.11 13.6z"/>
  <path class="cls-1" d="M43.75 79.83a1.5 1.5 0 0 1-1.5-1.5v-5.55a1.5 1.5 0 0 1 3 0v5.56a1.5 1.5 0 0 1-1.5 1.49z"/>
</svg>

<svg id="Calque_1" data-name="Calque 1" xmlns="http://www.w3.org/2000/svg" viewBox="0 0 120 120"><defs><style>.cls-1{fill:currentColor;}</style></defs><title>Manifestations</title><circle class="cls-2" cx="60" cy="60" r="51.5"/><path fill="#fff" d="M60,111.5A51.5,51.5,0,1,1,111.5,60,51.56,51.56,0,0,1,60,111.5Zm0-100A48.5,48.5,0,1,0,108.5,60,48.55,48.55,0,0,0,60,11.5Z"/><path class="cls-1" d="M67.71,79.83c-9.72,0-17.12-18.36-17.12-27.54a17.13,17.13,0,1,1,34.25,0C84.83,61.48,77.43,79.83,67.71,79.83Zm0-41.67A14.14,14.14,0,0,0,53.58,52.29c0,7.87,6.68,24.54,14.13,24.54S81.83,60.16,81.83,52.29A14.14,14.14,0,0,0,67.71,38.17Z"/><path class="cls-1" d="M67.71,88.17a1.5,1.5,0,0,1-1.5-1.5V78.33a1.5,1.5,0,0,1,3,0v8.33A1.5,1.5,0,0,1,67.71,88.17Z"/><path class="cls-1" d="M43.75,74.28c-6.88,0-11.92-12.4-11.92-18.86a11.91,11.91,0,0,1,21.74-6.73,1.5,1.5,0,1,1-2.47,1.7,8.91,8.91,0,0,0-16.27,5c0,5.55,4.58,15.86,8.92,15.86,3.23,0,6.71-5.77,8.21-11.35a1.5,1.5,0,1,1,2.9.78C53.5,65.75,49.64,74.28,43.75,74.28Z"/><path class="cls-1" d="M43.75,79.83a1.5,1.5,0,0,1-1.5-1.5V72.78a1.5,1.5,0,0,1,3,0v5.56A1.5,1.5,0,0,1,43.75,79.83Z"/></svg>
